X: 100250
M: C|
L: 1/8
K: Bb
!ff!(ude) |\
{g}f=efg f2{a}b2 | f=efg f2{a}b2 | fdbf cfaf | dfba gfde |
{g}f=efg f2{a}b2 | f=efg f2{a}b2 | fdbf cfaf | bfdf B2 :|
|: (uFE) |\
!pp!DF ((3F=EF) (BF)dF | cF ((3F=EF) (AF)cF | (DF)BF (CF)AF | (Bd)cA (BG)FE |


